X:12556
T:Paddy Bartley's
R:Reel
S:Fisher Street
H:
N:
D:Fisher Street: Out in the Night
Z:Adrian Scahill
M:4/4
L:1/8
K:D
D2FA dAFD|Eeed cA (3Bcd|D2FA dAFD|1 A,ECE FDDA,:|2 A,ECE FDDA||\
defa gfed|(3cBA eA fAeA|d2fa gfed|cbag fddA:||
